X: 1
T: String Quartet in E\b Major opus 20 no 1 mvt 2
C: Franz Joseph Haydn
%%abc-version 2.0
%%abcx-abcm2ps-target-version 5.9.1 (29 Sep 2008)
%%abc-creator hum2abc beta
%%abcx-conversion-date 2021/02/14 14:38:28
%%abc-copyright Copyright (c) 1994, 2000 Center for Computer Assisted Research in the Humanities
%%abc-edited-by Frances Bennion
%%abcx-initial-encoding-date 1997/04/15
%%gracespace 0 6 6
%%humdrum-veritas 2627976325
%%humdrum-veritas-data 948421581
%%linebreak <none>
%%barnumbers 0
L: 1/4
M: 3/4
N: Derived from op20n1-02.krn
Q: "Menuetto: un poco allegretto"
%%staves [1 2 3 4]
V: 1
V: 2
V: 3 clef=alto
V: 4 clef=bass
K: Eb
[V:1]z2 E3//G// [I:setbarnb1] |
[V:2]z2 z |
[V:3]z2 z |
[V:4]z2 z |
[V:1]B B e |
[V:2][EG,] z G |
[V:3]E z B- |
[V:4]E, z E |
[V:1]d B B3//d// |
[V:2]A z A |
[V:3]B z B- |
[V:4]F z F |
[V:1]e e g |
[V:2]G z G |
[V:3]B z B- |
[V:4]E z E |
[V:1]a2 A, |
[V:2]F2 A, |
[V:3]B2 D, |
[V:4]D2 D,, |
[V:1]G, A, B, |
[V:2]G, A, B, |
[V:3]E, F, G, |
[V:4]E,, F,, G,, |
[V:1]C D E |
[V:2]C D E |
[V:3]A, B, C |
[V:4]A,, B,, C, |
[V:1]F2 D3//B,// |
[V:2]F2 D3//B,// |
[V:3]A, F, B, |
[V:4]A,, F,, B,, |
[V:1]E z G3//E// |
[V:2]E z G |
[V:3]E, z E |
[V:4]E,,2 z |
[V:1]B B e3//=A// |
[V:2]F2 E |
[V:3]D2 C |
[V:4]z3 |
[V:1]B B G3//E// |
[V:2]D2 G |
[V:3]B,2 E |
[V:4]z3 |
[V:1]B B e3//=A// |
[V:2]F2 E |
[V:3]D2 C |
[V:4]z3 |
[V:1]B B B3//_d// |
[V:2]D2 z |
[V:3]B,2 z |
[V:4]z3 |
[V:1]f f b |
[V:2]_d3 |
[V:3]B3 |
[V:4]B,,3 |
[V:1]=a f B3//_d// |
[V:2]e2 z |
[V:3]c2 z |
[V:4]F,2 z |
[V:1]f f _d' |
[V:2]_d2 b |
[V:3]B2 =E |
[V:4]B,2 =E, |
[V:1]c'2 B3//d// |
[V:2]=a2 B,3//D// |
[V:3]F2 z |
[V:4]F, F,, z |
[V:1]f f b |
[V:2]F F B |
[V:3]B,3- |
[V:4]D,3 |
[V:1]g e c |
[V:2]G E C |
[V:3]B,2 G |
[V:4]E,3 |
[V:1]B2 c3//=A// |
[V:2]D2 E3//C// |
[V:3]F2 E |
[V:4]F,3 |
[V:1]B3- |
[V:2]B, z/>B,/ D3//F// |
[V:3]D z2 |
[V:4]B,, B, B,,3//D,// |
[V:1]B3- |
[V:2]A F/>D/ E3//G// |
[V:3]D, F, G,3//E,// |
[V:4]F, A, G,3//E,// |
[V:1]B3- |
[V:2]F z/>B,/ D3//F// |
[V:3]D, z2 |
[V:4]B,, B, B,,3//D,// |
[V:1]B3- |
[V:2]A F/>D/ E3//G// |
[V:3]D, F, G,3//E,// |
[V:4]F, A, G,3//E,// |
[V:1]B/>B,/ C/>D/ E3//G// |
[V:2]F z2 |
[V:3]D, z2 |
[V:4]B,, z2 |
[V:1]B B e |
[V:2][EG,] z G |
[V:3]E z B- |
[V:4]E,, z E |
[V:1]d B B3//d// |
[V:2]A z A |
[V:3]B z B- |
[V:4]F z F |
[V:1]e e g |
[V:2]G z G |
[V:3]B z B |
[V:4]E z E |
[V:1]a2 A, |
[V:2]F2 A, |
[V:3]B2 D, |
[V:4]D2 D,, |
[V:1]G, A, B, |
[V:2]G, A, B, |
[V:3]E, F, G, |
[V:4]E,, F,, G,, |
[V:1]C D E |
[V:2]C D E |
[V:3]A, B, C |
[V:4]A,, B,, C, |
[V:1]F2 D3//B,// |
[V:2]F2 D3//B,// |
[V:3]A, F, B, |
[V:4]A,, F,, B,, |
[V:1]E z E3//G// |
[V:2]E z2 |
[V:3]E, z2 |
[V:4]E,, E, z |
[V:1]B B e |
[V:2][G,E] z G |
[V:3]E z B- |
[V:4]E, z E |
[V:1]d B B3//d// |
[V:2]A z A |
[V:3]B z B- |
[V:4]F z F |
[V:1]e e g |
[V:2]G z B |
[V:3]B z E |
[V:4]E z E |
[V:1]=a3- |
[V:2]e3- |
[V:3]_G3- |
[V:4]C3- |
[V:1]a _g g |
[V:2]e E E |
[V:3]G =A A |
[V:4]C3- |
[V:1]_g f e |
[V:2]E F _G |
[V:3]=A3 |
[V:4]C3 |
[V:1]e2 f/d/ |
[V:2]G2 A/F/ |
[V:3]B2 A |
[V:4]B,3 |
[V:1]e z B3//G// |
[V:2]E z G3//E// |
[V:3]G z2 |
[V:4]E, z2 |
[V:1]c c A3//F// |
[V:2]A A F3//D// |
[V:3]z3 |
[V:4]z3 |
[V:1]B B G3//E// |
[V:2]G G B, |
[V:3]z2 E |
[V:4]E, z2 |
[V:1]F F D3//B,// |
[V:2]C2 A, |
[V:3]A,2 F, |
[V:4]A,,2 B,, |
[V:1]E z2 |
[V:2]G, z2 |
[V:3]E, z2 |
[V:4]E,, z E, |
[V:1]z e/c'/ b/a/ |
[V:2]C3 |
[V:3]z3 |
[V:4]A,3 |
[V:1]a2 g- |
[V:2]_D3 |
[V:3]z3 |
[V:4]B,3 |
[V:1]g a _g- |
[V:2]E3 |
[V:3]z3 |
[V:4]C3 |
[V:1]g f f- |
[V:2]F3 |
[V:3]z3 |
[V:4]_D3 |
[V:1]f e _d |
[V:2]G3 |
[V:3]z3 |
[V:4]E3 |
[V:1]_d3 |
[V:2]A3- |
[V:3]z3 |
[V:4]F3- |
[V:1]c c d |
[V:2]A3 |
[V:3]z3 |
[V:4]F3 |
[V:1]e e e |
[V:2]G3 |
[V:3]z3 |
[V:4]E3 |
[V:1]f f f/g/ |
[V:2]D D D |
[V:3]z3 |
[V:4]B, B, B, |
[V:1]e z2 |
[V:2]E z2 |
[V:3]z3 |
[V:4]E, z E, |
[V:1]z G G- |
[V:2]_D3 |
[V:3]z3 |
[V:4]B,3 |
[V:1]G A A |
[V:2]E3 |
[V:3]z3 |
[V:4]C3 |
[V:1]z =A A- |
[V:2]_G3 |
[V:3]z3 |
[V:4]E3 |
[V:1]A B B- |
[V:2]F3 |
[V:3]z3 |
[V:4]D3 |
[V:1]B =B B- |
[V:2]A3 |
[V:3]z3 |
[V:4]F3 |
[V:1]B c c |
[V:2]G3 |
[V:3]z C C |
[V:4]=E3 |
[V:1]c2 F3//A// |
[V:2]G2 z |
[V:3]C2 z |
[V:4]=E2 z |
[V:1]c c f |
[V:2]A, z A |
[V:3]F z c- |
[V:4]F, z F |
[V:1]=e c c3//e// |
[V:2]B z B |
[V:3]c z c- |
[V:4]G z G |
[V:1]f f a |
[V:2]A z A |
[V:3]c z c- |
[V:4]F z F |
[V:1]b z2 |
[V:2]G z2 |
[V:3]c z2 |
[V:4]=E z2 |
[V:1]z3 |]
[V:2]z3 |]
[V:3]z3 |]
[V:4]z3 |]

